svgs/thin/trees.svg

<svg xmlns="http://www.w3.org/2000/svg" viewBox="0 0 640 512"><!--! Font Awesome Pro 6.0.0-alpha3 by @fontawesome - https://fontawesome.com License - https://fontawesome.com/license (Commercial License) --><path d="M298.4 288H329c8.998 0 17-5 20.88-13c3.75-8.125 2.5-17.38-3.375-24.12L268.4 160h28.88c9.127 0 17.38-5.375 20.88-13.62c3.625-8.125 1.875-17.62-4.25-24.12L203.6 4.875C200.6 1.625 196.3 0 191.1 0C187.7 0 183.4 1.625 180.4 4.875L69.97 122.3c-5.998 6.5-7.748 16-4.125 24.12C69.34 154.6 77.59 160 86.72 160h28.88L37.46 250.9c-5.875 6.875-7.125 16-3.375 24.12C37.96 283 45.84 288 54.96 288h30.63l-79.88 90.5c-6 6.75-7.377 16.12-3.625 24.25C5.834 410.8 14.08 416 23.09 416H184v87.1C184 508.4 187.6 512 192 512s8.001-3.578 8.001-8.002V416h160.9c9 0 17.25-5.25 21-13.25c3.75-8.125 2.5-17.5-3.5-24.25L298.4 288zM367.4 395.1C366.3 398.4 363.6 400 360.9 400H200.1L200 355.3l53.65-53.66c3.125-3.125 3.125-8.188 0-11.31s-8.188-3.125-11.31 0L200 332.7V168c0-4.422-3.577-8-7.999-8S184 163.6 184 168v100.7L141.7 226.3c-3.125-3.125-8.186-3.125-11.31 0s-3.125 8.188 0 11.31L184 291.3V400H23.09c-2.764 0-5.381-1.625-6.475-3.957c-1.09-2.359-.6953-4.943 1.094-6.955L121.1 272H54.96c-2.936 0-5.234-1.412-6.35-3.705C47.47 265.8 47.82 263.4 49.6 261.3L150.5 144H86.72c-2.693 0-5.164-1.557-6.266-4.145c-.9668-2.168-.457-4.883 1.168-6.645l110.2-117.2c.0254-.0098-.1426 0 0 0L302.2 133.2c1.748 1.855 2.252 4.459 1.166 6.902C302.4 142.4 299.9 144 297.2 144H233.5l100.9 117.4c1.705 1.961 2.039 4.48 1.045 6.646C334.3 270.5 331.8 272 328.1 272H262.9l103.6 117.1C368.1 391 368.5 393.6 367.4 395.1zM634.3 378.5L554.4 288h30.63c9 0 17-5 20.88-13c3.75-8.125 2.5-17.38-3.375-24.12L524.4 160h28.88c9.125 0 17.38-5.375 20.88-13.62c3.625-8.125 1.875-17.62-4.25-24.12l-110.3-117.4C456.6 1.625 452.3 0 448 0c-4.314 0-8.627 1.625-11.63 4.875l-95.67 100.8c-2.982 3.145-2.916 8.092 .1484 11.16c3.182 3.182 8.361 3.113 11.46-.1523l95.56-100.7c.0254-.0098-.1426 0 0 0l110.4 117.2c1.75 1.855 2.252 4.459 1.166 6.902C558.4 142.4 555.1 144 553.3 144h-63.74l100.9 117.4c1.705 1.961 2.039 4.48 1.043 6.646C590.3 270.5 587.9 272 585 272h-66.09l103.4 117.1c1.752 1.971 2.146 4.555 1.098 6.83C622.3 398.4 619.7 400 616.9 400H455.1V291.3l53.66-53.66c3.125-3.125 3.125-8.188 0-11.31s-8.186-3.125-11.31 0L455.1 268.7V168c0-4.422-3.575-8-7.997-8S439.1 163.6 439.1 168v164.7L397.7 290.3c-3.125-3.125-8.188-3.125-11.31 0s-3.125 8.188 0 11.31l53.65 53.66v148.7C439.1 508.4 443.6 512 448 512s7.998-3.578 7.998-8.002V416h160.9c9.002 0 17.25-5.25 21-13.25C641.7 394.6 640.3 385.3 634.3 378.5z"/></svg>

<svg xmlns="http://www.w3.org/2000/svg" viewBox="0 0 640 512"><!-- Font Awesome Pro 6.0.0-alpha2 by @fontawesome - https://fontawesome.com License - https://fontawesome.com/license (Commercial License) --><path d="M298.369 288H328.998C337.996 288 345.998 283 349.873 275C353.623 266.875 352.373 257.625 346.498 250.875L268.365 160H297.242C306.369 160 314.621 154.625 318.121 146.375C321.746 138.25 319.996 128.75 313.871 122.25L203.605 4.875C200.607 1.625 196.295 0 191.982 0C187.668 0 183.355 1.625 180.355 4.875L69.965 122.25C63.967 128.75 62.217 138.25 65.84 146.375C69.34 154.625 77.592 160 86.717 160H115.596L37.463 250.875C31.588 257.75 30.338 266.875 34.088 275C37.963 283 45.84 288 54.965 288H85.592L5.709 378.5C-0.291 385.25 -1.668 394.625 2.084 402.75C5.834 410.75 14.084 416 23.086 416H184.002V503.998C184.002 508.422 187.58 512 192.002 512S200.002 508.422 200.002 503.998V416H360.875C369.875 416 378.127 410.75 381.877 402.75C385.627 394.625 384.377 385.25 378.377 378.5L298.369 288ZM367.391 395.959C366.258 398.375 363.639 400 360.875 400H200.002V355.312L253.656 301.648C256.781 298.523 256.781 293.461 253.656 290.336S245.469 287.211 242.344 290.336L200.002 332.686V168C200.002 163.578 196.424 160 192.002 160S184.002 163.578 184.002 168V268.686L141.654 226.34C138.529 223.215 133.469 223.215 130.344 226.34S127.219 234.527 130.344 237.652L184.002 291.312V400H23.086C20.322 400 17.705 398.375 16.611 396.043C15.521 393.684 15.916 391.1 17.705 389.088L97.588 298.588L121.057 272H54.965C52.029 272 49.73 270.588 48.615 268.295C47.471 265.812 47.82 263.383 49.596 261.307L127.728 170.432L150.453 144H86.717C84.023 144 81.553 142.443 80.451 139.855C79.484 137.688 79.994 134.973 81.619 133.211L191.717 16.035C191.742 16.025 191.84 16 191.982 16L191.945 15.83L302.227 133.223C303.975 135.078 304.478 137.682 303.393 140.125C302.408 142.443 299.937 144 297.242 144H233.508L256.234 170.432L334.432 261.379C336.137 263.34 336.471 265.859 335.477 268.025C334.269 270.514 331.848 272 328.998 272H262.867L286.383 298.598L366.418 389.129C368.117 391.041 368.467 393.627 367.391 395.959ZM634.291 378.5L554.406 288H585.035C594.035 288 602.037 283 605.912 275C609.662 266.875 608.412 257.625 602.537 250.875L524.402 160H553.281C562.406 160 570.658 154.625 574.158 146.375C577.783 138.25 576.033 128.75 569.908 122.25L459.643 4.875C456.643 1.625 452.33 0 448.018 0C443.703 0 439.391 1.625 436.391 4.875L340.723 105.713C337.74 108.857 337.807 113.805 340.871 116.869C344.053 120.051 349.232 119.982 352.328 116.717L447.752 16.035C447.777 16.025 447.875 16 448.018 16L447.98 15.83L558.264 133.223C560.014 135.078 560.516 137.682 559.43 140.125C558.445 142.443 555.977 144 553.281 144H489.545L590.469 261.379C592.174 263.34 592.508 265.859 591.512 268.025C590.307 270.514 587.885 272 585.035 272H518.941L622.332 389.129C624.084 391.1 624.478 393.684 623.43 395.959C622.297 398.375 619.678 400 616.914 400H455.998V291.312L509.656 237.652C512.781 234.527 512.781 229.465 509.656 226.34S501.471 223.215 498.346 226.34L455.998 268.686V168C455.998 163.578 452.42 160 447.998 160S439.998 163.578 439.998 168V332.686L397.656 290.336C394.531 287.211 389.469 287.211 386.344 290.336S383.219 298.523 386.344 301.648L439.998 355.312V503.998C439.998 508.422 443.576 512 447.998 512S455.998 508.422 455.998 503.998V416H616.914C625.916 416 634.166 410.75 637.916 402.75C641.668 394.625 640.291 385.25 634.291 378.5Z"/></svg>
